src/assets/duotone/Send.svg

<svg width="24" height="24" viewBox="0 0 24 24"  xmlns="http://www.w3.org/2000/svg">
<path opacity="0.4" d="M9.50978 4.22965L18.0698 8.50965C21.9098 10.4296 21.9098 13.5696 18.0698 15.4896L9.50978 19.7696C3.74978 22.6496 1.39978 20.2896 4.27978 14.5396L5.14978 12.8096C5.39978 12.2996 5.39978 11.7096 5.14978 11.1996L4.27978 9.45965C1.39978 3.70965 3.75978 1.34965 9.50978 4.22965Z" />
<path d="M14.8399 12.75H9.43994C9.02994 12.75 8.68994 12.41 8.68994 12C8.68994 11.59 9.02994 11.25 9.43994 11.25H14.8399C15.2499 11.25 15.5899 11.59 15.5899 12C15.5899 12.41 15.2499 12.75 14.8399 12.75Z" />
</svg>

<?xml version="1.0" encoding="UTF-8"?>
<svg width="24" height="24" viewBox="0 0 24 24" xmlns="http://www.w3.org/2000/svg">
 <path d="m9.5098 4.2296 8.56 4.28c3.84 1.92 3.84 5.06 0 6.98l-8.56 4.28c-5.76 2.88-8.11 0.52-5.23-5.23l0.87-1.73c0.25-0.51 0.25-1.1 0-1.61l-0.87-1.74c-2.88-5.75-0.52-8.11 5.23-5.23z" opacity=".4"/>
 <path d="m14.84 12.75h-5.4c-0.41 0-0.75-0.34-0.75-0.75s0.34-0.75 0.75-0.75h5.4c0.41 0 0.75 0.34 0.75 0.75s-0.34 0.75-0.75 0.75z"/>
</svg>
